static/images/nav-main-logo.svg

<svg width="80" height="80" viewBox="0 0 80 80" fill="none" xmlns="http://www.w3.org/2000/svg">
<path d="M80 0H0V79.8546H80V0Z" fill="#FBF5F1"/>
<path d="M79.9632 33.6364C74.2905 36.1091 67.345 35.8909 61.1995 35.4909L22.3632 37.3091C14.4723 36.6546 7.74499 31.9273 0.0722656 29.9273V80H79.9632V33.6364Z" fill="#FFDAD8"/>
<path d="M79.9639 46.8C78.2185 47.7455 76.3639 48.0364 74.4003 47.6728C72.0366 47.2 69.9275 45.7455 67.5275 45.4182C64.5457 44.9818 61.6366 46.4 58.6548 46.6182C55.4548 46.8728 52.2548 45.8546 49.0548 45.8909C46.0366 45.9273 43.1275 46.9091 40.1821 47.4909C36.2912 48.2546 32.2548 48.3273 28.3639 47.6728C26.1821 47.3091 24.0003 46.7273 21.7821 46.5818C19.3094 46.4364 16.8366 46.8728 14.3639 47.0546C11.1276 47.3091 3.3821 45.9637 0.109375 45.9637V80H80.0003L79.9639 46.8Z" fill="#FFBFA8"/>
<path d="M0.0722656 54.0363V80H79.9632V53.3454C75.0541 55.0545 69.5995 54.4363 64.4723 53.4909C59.3814 52.5454 54.1814 51.3091 49.0177 51.8545C45.4177 52.2545 41.8904 53.4909 38.2541 53.5273C34.8359 53.5636 31.4904 52.5454 28.1086 52C23.745 51.2727 19.2723 51.2727 14.945 52C10.4723 52.7636 4.58136 54.2909 0.0722656 54.0363Z" fill="#FFDFAF"/>
<path d="M79.9632 62.2182C75.8541 62.2182 71.6359 61.1273 67.5632 60.4364C60.7995 59.3091 53.8541 59.4182 47.1268 60.7637C43.345 61.5273 39.6359 62.6546 35.8177 63.2727C31.6723 63.9273 27.4541 63.9637 23.3086 63.3818C19.6723 62.8364 16.1086 61.8546 12.4723 61.2364C8.8359 60.6546 3.56317 60.5091 0.0722656 61.6727V80H79.9632V62.2182Z" fill="#FEF0A5"/>
<path d="M36.8008 52.7273H43.4553V54.5455H41.1644V61.1273H39.1281V54.5455H36.8371V52.7273H36.8008Z" fill="#4F4C6E"/>
<path d="M54.473 55.1637C54.6912 54.6182 55.0185 54.1455 55.4185 53.7818C55.8185 53.3818 56.2912 53.0909 56.873 52.8727C57.4185 52.6546 58.0003 52.5455 58.6548 52.5455C59.3094 52.5455 59.8912 52.6546 60.473 52.8727C61.0185 53.0909 61.4912 53.3818 61.9276 53.7818C62.3276 54.1818 62.6548 54.6546 62.873 55.1637C63.0912 55.7091 63.2003 56.2909 63.2003 56.9455C63.2003 57.6 63.0912 58.1818 62.873 58.7273C62.6548 59.2727 62.3276 59.7455 61.9276 60.1455C61.5276 60.5455 61.0548 60.8727 60.473 61.0909C59.9276 61.3091 59.3094 61.4182 58.6548 61.4182C58.0003 61.4182 57.3821 61.3091 56.8366 61.0909C56.2912 60.8727 55.8185 60.5455 55.3821 60.1455C54.9821 59.7455 54.6548 59.2727 54.4366 58.7273C54.2185 58.1818 54.1094 57.6 54.1094 56.9455C54.1457 56.2909 54.2548 55.7091 54.473 55.1637ZM56.5821 58.2546C56.7639 58.6182 57.0548 58.9455 57.4185 59.1273C57.7821 59.3455 58.1821 59.4546 58.6548 59.4546C59.1276 59.4546 59.5276 59.3455 59.8912 59.1273C60.2548 58.9091 60.5094 58.6182 60.7276 58.2546C60.9457 57.8909 61.0185 57.4182 61.0185 56.9455C61.0185 56.4364 60.9094 56 60.7276 55.6364C60.5457 55.2727 60.2548 54.9455 59.8912 54.7637C59.5276 54.5455 59.1276 54.4364 58.6185 54.4364C58.1457 54.4364 57.7457 54.5455 57.3821 54.7637C57.0185 54.9818 56.7639 55.2727 56.5457 55.6364C56.3639 56 56.2548 56.4727 56.2548 56.9455C56.2912 57.4546 56.4003 57.8909 56.5821 58.2546Z" fill="#4F4C6E"/>
<path d="M30.5085 59.2727C30.8357 59.5273 31.1994 59.6364 31.6357 59.6364C32.3266 59.6364 32.6539 59.3818 32.6539 58.8364C32.6539 58.5818 32.5812 58.4 32.4357 58.2546C32.2903 58.1091 32.0721 58 31.8175 57.8909C31.563 57.7818 31.2721 57.6727 30.9448 57.5273C30.7266 57.4546 30.5085 57.3455 30.2539 57.2C29.9994 57.0546 29.7448 56.9091 29.4903 56.6909C29.2357 56.4727 29.0539 56.2546 28.9085 55.9636C28.763 55.6727 28.6903 55.3091 28.6903 54.9091C28.6903 54.4364 28.7994 54.0364 29.0539 53.6727C29.3085 53.3091 29.6721 53.0546 30.1085 52.8364C30.5448 52.6546 31.0539 52.5455 31.6357 52.5455C32.2539 52.5455 32.763 52.6546 33.163 52.8364C33.563 53.0182 33.9266 53.2727 34.1812 53.5637C34.4357 53.8546 34.6175 54.1455 34.7266 54.4364L33.1994 55.3091C33.0175 54.9818 32.7994 54.7637 32.5812 54.5818C32.3266 54.4 32.0721 54.3273 31.7448 54.3273C31.4539 54.3273 31.1994 54.4 31.0539 54.5091C30.8721 54.6182 30.7994 54.8 30.7994 55.0182C30.7994 55.2 30.8721 55.3818 31.0539 55.5273C31.2357 55.6727 31.4903 55.7818 31.7812 55.8909C32.0721 56 32.3994 56.1091 32.7266 56.2546C33.1266 56.4 33.4903 56.5818 33.8175 56.8C34.1448 57.0182 34.3994 57.3091 34.5812 57.6364C34.763 57.9637 34.8721 58.3636 34.8721 58.8727C34.8721 59.7091 34.5812 60.3637 33.9994 60.8364C33.4175 61.2727 32.6539 61.5273 31.6721 61.5273C31.163 61.5273 30.6903 61.4182 30.2175 61.2364C29.7812 61.0546 29.3812 60.8 29.0175 60.4364C28.6903 60.1091 28.3994 59.7091 28.2539 59.2364L29.6721 58.2546C29.8903 58.6546 30.1812 59.0182 30.5085 59.2727Z" fill="#4F4C6E"/>
<path d="M17.1273 55.1637C17.3455 54.6182 17.6728 54.1455 18.0728 53.7818C18.4728 53.3818 18.9455 53.0909 19.5273 52.8727C20.0728 52.6546 20.6546 52.5455 21.3091 52.5455C21.9637 52.5455 22.5455 52.6546 23.1273 52.8727C23.6728 53.0909 24.1455 53.3818 24.5819 53.7818C24.9819 54.1818 25.3091 54.6546 25.5273 55.1637C25.7455 55.7091 25.8546 56.2909 25.8546 56.9455C25.8546 57.6 25.7455 58.1818 25.5273 58.7273C25.3091 59.2727 24.9819 59.7455 24.5819 60.1455C24.1819 60.5455 23.7091 60.8727 23.1273 61.0909C22.5819 61.3091 21.9637 61.4182 21.3091 61.4182C20.6546 61.4182 20.0364 61.3091 19.4909 61.0909C18.9455 60.8727 18.4728 60.5455 18.0364 60.1455C17.6364 59.7455 17.3091 59.2727 17.0909 58.7273C16.8728 58.1818 16.7637 57.6 16.7637 56.9455C16.8 56.2909 16.9091 55.7091 17.1273 55.1637ZM19.2364 58.2546C19.4182 58.6182 19.7091 58.9455 20.0728 59.1273C20.4364 59.3455 20.8364 59.4546 21.3091 59.4546C21.7819 59.4546 22.1819 59.3455 22.5455 59.1273C22.9091 58.9091 23.1637 58.6182 23.3819 58.2546C23.6 57.8909 23.6728 57.4182 23.6728 56.9455C23.6728 56.4364 23.5637 56 23.3819 55.6364C23.2 55.2727 22.9091 54.9455 22.5455 54.7637C22.1819 54.5455 21.7819 54.4364 21.2728 54.4364C20.8 54.4364 20.4 54.5455 20.0364 54.7637C19.6728 54.9818 19.4182 55.2727 19.2 55.6364C19.0182 56 18.9091 56.4727 18.9091 56.9455C18.9455 57.4546 19.0546 57.8909 19.2364 58.2546Z" fill="#4F4C6E"/>
<path d="M47.8191 59.491H51.4555V61.1637H47.8191H47.2009H45.8555V52.7273H47.2009H47.8191H51.4555V54.4001H47.8191V55.891H51.2373V57.5273H47.8191V59.491ZM48.4373 51.7455L47.4191 51.2364L49.2373 49.3091L50.6191 49.9637L48.4373 51.7455Z" fill="#4F4C6E"/>
<path d="M52.8357 35.4909H54.4721L50.363 44.3636L46.2539 35.4909H47.8903L50.363 41.4182L52.8357 35.4909Z" fill="#4F4C6E"/>
<path d="M39.0178 43.9273H37.5996V35.4909H38.436H39.0178H40.1814C40.7996 35.4909 41.3087 35.6 41.7814 35.8182C42.2178 36.0364 42.5814 36.3273 42.836 36.7273C43.0905 37.1273 43.1996 37.5636 43.1996 38.1091C43.1996 38.7273 43.0178 39.2364 42.6905 39.6727C42.3633 40.1091 41.8905 40.4 41.3087 40.5818L43.6723 43.9273H41.9633L39.8178 40.7273H38.9451V43.9273H39.0178ZM40.1451 39.5636C40.6178 39.5636 41.0178 39.4545 41.3087 39.2C41.5996 38.9455 41.7451 38.6182 41.7451 38.1455C41.7451 37.7091 41.5996 37.3455 41.3087 37.0909C41.0178 36.8364 40.6178 36.7273 40.1451 36.7273H39.0178V39.5636H40.1451Z" fill="#4F4C6E"/>
<path d="M29.7451 42.6545H33.4542V43.8909H29.7451H29.236H28.3633V35.4909H29.236H29.7451H33.4542V36.7273H29.7451V38.7636H33.236V40H29.7451V42.6545Z" fill="#4F4C6E"/>
<path d="M18.4358 35.4909V38.7273H22.6539V35.4909H24.0721V43.8909H22.6539V40.0364H18.4358V43.8909H17.0176V35.4909H18.4358Z" fill="#4F4C6E"/>
<path d="M59.2353 42.6546H62.9444V43.8909H59.2353H58.7262H57.8535V35.4909H58.7262H59.2353H62.9444V36.7273H59.2353V38.7637H62.7262V40H59.2353V42.6546ZM59.9262 34.5818L59.199 34.1455L61.0171 32.2182L62.1081 32.7637L59.9262 34.5818Z" fill="#4F4C6E"/>
<path d="M17.7456 26.6914H21.6001V27.3096H17.7456H17.4183H17.0547V18.9096H17.4183H17.7456H21.6001V19.5278H17.7456V22.4005H21.382V23.0187H17.7456V26.6914Z" fill="#4F4C6E"/>
<path d="M56.2917 27.3091H55.5645L59.2735 18.5818L62.9826 27.3091H62.2554L61.0917 24.4728H57.4554L56.2917 27.3091ZM60.8008 23.8546L59.2735 20.1091L57.7099 23.8546H60.8008Z" fill="#4F4C6E"/>
<path d="M42.4006 27.3091H41.7461L42.7279 18.5818L46.1097 25.0546L49.4916 18.5818L50.4734 27.3091H49.8188L49.0915 20.6909L46.1461 26.3273L43.2006 20.6909L42.4006 27.3091Z" fill="#4F4C6E"/>
<path d="M28.1467 27.3091H27.4922L28.474 18.5818L31.8558 25.0546L35.2376 18.5818L36.2195 27.3091H35.5649L34.8376 20.6909L31.8922 26.3273L28.9467 20.6909L28.1467 27.3091Z" fill="#4F4C6E"/>
</svg>

<svg width="80" height="80" fill="none" xmlns="http://www.w3.org/2000/svg"><path d="M80 0H0v79.855h80V0z" fill="#FBF5F1"/><path d="M79.963 33.636c-5.672 2.473-12.618 2.255-18.763 1.855l-38.837 1.818c-7.89-.654-14.618-5.382-22.29-7.382V80h79.89V33.636z" fill="#FFDAD8"/><path d="M79.964 46.8c-1.745.946-3.6 1.236-5.564.873-2.363-.473-4.473-1.928-6.873-2.255-2.981-.436-5.89.982-8.872 1.2-3.2.255-6.4-.763-9.6-.727-3.018.036-5.928 1.018-8.873 1.6-3.89.764-7.927.836-11.818.182-2.182-.364-4.364-.946-6.582-1.091-2.473-.146-4.945.29-7.418.473-3.236.254-10.982-1.091-14.255-1.091V80H80l-.036-33.2z" fill="#FFBFA8"/><path d="M.072 54.036V80h79.891V53.345c-4.909 1.71-10.363 1.091-15.49.146-5.092-.946-10.292-2.182-15.455-1.636-3.6.4-7.128 1.636-10.764 1.672-3.418.037-6.764-.982-10.145-1.527a39.981 39.981 0 00-13.164 0c-4.473.764-10.364 2.29-14.873 2.036z" fill="#FFDFAF"/><path d="M79.963 62.218c-4.109 0-8.327-1.09-12.4-1.782a56.77 56.77 0 00-20.436.328c-3.782.763-7.491 1.89-11.31 2.509a42.42 42.42 0 01-12.508.109c-3.637-.546-7.2-1.527-10.837-2.146-3.636-.581-8.909-.727-12.4.437V80h79.891V62.218z" fill="#FEF0A5"/><path d="M36.8 52.727h6.655v1.819h-2.29v6.581h-2.037v-6.582h-2.29v-1.818H36.8zm17.673 2.437a3.744 3.744 0 01.946-1.382c.4-.4.872-.691 1.454-.91a4.711 4.711 0 011.782-.327c.654 0 1.236.11 1.818.328a4.665 4.665 0 011.455.909c.4.4.727.873.945 1.382a4.71 4.71 0 01.327 1.782 4.71 4.71 0 01-.327 1.781 4.219 4.219 0 01-.945 1.419c-.4.4-.873.727-1.455.945a4.9 4.9 0 01-1.818.327 4.9 4.9 0 01-1.818-.327c-.546-.218-1.019-.546-1.455-.946-.4-.4-.727-.872-.945-1.418a4.711 4.711 0 01-.328-1.781c.037-.655.146-1.237.364-1.782zm2.11 3.09c.18.364.472.692.836.873.363.218.763.328 1.236.328s.873-.11 1.236-.328c.364-.218.618-.509.837-.872.218-.364.29-.837.29-1.31a2.91 2.91 0 00-.29-1.309c-.182-.363-.473-.69-.837-.872-.363-.219-.763-.328-1.273-.328-.472 0-.872.11-1.236.328-.363.218-.618.509-.836.872a3.016 3.016 0 00-.291 1.31c.036.509.145.945.327 1.309zm-26.074 1.019c.327.254.69.363 1.127.363.69 0 1.018-.254 1.018-.8 0-.254-.073-.436-.218-.581-.146-.146-.364-.255-.619-.364-.254-.11-.545-.218-.872-.364a3.875 3.875 0 01-.691-.327 4.641 4.641 0 01-.764-.51 2.236 2.236 0 01-.581-.726c-.146-.291-.219-.655-.219-1.055 0-.473.11-.873.364-1.236.255-.364.618-.618 1.055-.837.436-.181.945-.29 1.527-.29.618 0 1.127.109 1.527.29.4.182.764.437 1.018.728.255.29.437.581.546.872l-1.528.873a2.504 2.504 0 00-.618-.727 1.342 1.342 0 00-.836-.255c-.291 0-.546.073-.691.182-.182.11-.255.291-.255.51 0 .181.073.363.255.508.182.146.436.255.727.364.291.109.618.218.946.364.4.145.763.327 1.09.545a2.4 2.4 0 01.764.836c.182.328.291.728.291 1.237 0 .836-.29 1.49-.873 1.963-.582.437-1.345.691-2.327.691a4 4 0 01-1.454-.29 3.654 3.654 0 01-1.2-.8c-.328-.328-.619-.728-.764-1.2l1.418-.982c.218.4.51.763.837 1.018zm-13.382-4.109a3.744 3.744 0 01.946-1.382c.4-.4.872-.691 1.454-.91a4.711 4.711 0 011.782-.327c.655 0 1.236.11 1.818.328a4.665 4.665 0 011.455.909c.4.4.727.873.945 1.382a4.71 4.71 0 01.328 1.782 4.71 4.71 0 01-.328 1.781 4.219 4.219 0 01-.945 1.419c-.4.4-.873.727-1.455.945a4.9 4.9 0 01-1.818.327 4.9 4.9 0 01-1.818-.327c-.546-.218-1.018-.546-1.455-.946-.4-.4-.727-.872-.945-1.418a4.711 4.711 0 01-.327-1.781c.036-.655.145-1.237.363-1.782zm2.11 3.09c.181.364.472.692.836.873.363.218.763.328 1.236.328s.873-.11 1.236-.328c.364-.218.619-.509.837-.872.218-.364.29-.837.29-1.31 0-.509-.108-.945-.29-1.309-.182-.363-.473-.69-.837-.872-.363-.219-.763-.328-1.272-.328-.473 0-.873.11-1.237.328-.363.218-.618.509-.836.872-.182.364-.29.837-.29 1.31.035.509.145.945.326 1.309zm28.583 1.237h3.636v1.673h-5.601v-8.437h5.6V54.4H47.82v1.491h3.418v1.636H47.82v1.964zm.617-7.745l-1.018-.51 1.818-1.927 1.382.655-2.182 1.782zm4.399-16.256h1.636l-4.109 8.874-4.11-8.873h1.637l2.473 5.927 2.473-5.927zm-13.818 8.437H37.6v-8.436h2.581c.619 0 1.128.109 1.6.327.437.218.8.51 1.055.91.255.4.364.836.364 1.381 0 .618-.182 1.127-.51 1.564-.327.436-.8.727-1.381.909l2.363 3.345h-1.709l-2.145-3.2h-.873v3.2h.073zm1.127-4.363c.473 0 .873-.11 1.164-.364.29-.255.436-.582.436-1.055 0-.436-.145-.8-.436-1.054-.291-.255-.691-.364-1.164-.364h-1.127v2.837h1.127zm-10.4 3.09h3.71v1.237h-5.093v-8.4h5.091v1.236h-3.709v2.037h3.491V40h-3.49v2.654zM18.436 35.49v3.237h4.218v-3.236h1.418v8.4h-1.418v-3.855h-4.218v3.855h-1.418v-8.4h1.418zm40.799 7.165h3.71v1.236h-5.093v-8.4h5.091v1.236h-3.709v2.037h3.491V40h-3.49v2.655zm.691-8.073l-.727-.437 1.818-1.927 1.091.546-2.182 1.818zm-42.18-7.891H21.6v.619h-4.545v-8.4H21.6v.618h-3.854V22.4h3.636v.618h-3.636v3.672zm38.546.619h-.727l3.709-8.728 3.709 8.727h-.728l-1.163-2.836h-3.637l-1.163 2.836zm4.509-3.455l-1.528-3.746-1.563 3.746h3.09zM42.4 27.31h-.654l.982-8.728 3.382 6.473 3.382-6.473.981 8.727h-.654l-.727-6.618-2.946 5.636-2.945-5.636-.8 6.618zm-14.253 0h-.655l.982-8.728 3.382 6.473 3.382-6.473.981 8.727h-.654l-.727-6.618-2.946 5.636-2.945-5.636-.8 6.618z" fill="#4F4C6E"/></svg>
